X: 1
T: da Boannie Isle o' Whalsey
T: the Bonnie Isle o' Whalsay
R: reel
C: Shetland, from Silver Bow (Tom Anderson et al)
Z: arr. B.R.McO. 12/86
Z: 2019 John Chambers <jc:trillian.mit.edu>
M: 4/4
L: 1/8
K: A
[ee-] "A"|\
"A"edcA "E7"B2ed | "A"cAAc "E7"BEE[ee-] |\
"A"edcA "Bm"B2ed | "E7"cABG "A"A2A[ee]- |
y4 |\
"A"edcA "E7"B2ed | "A"cAAc "E7"BEE[ee]- |\
"A"edcA "Bm"B2ed | "E7"cABG "A"A2A ||
B "B"|\
"A"cde=g "D"fded | "A"cAAc "G"B=GGB |\
"A"cde=g "D"fded | "E7"cAB^G "A"A2 AB |
y4 |\
"A"cde=g "D"fded | "A"cAAc "G"B=GGB |\
"A"cdef =gage | "Em"dB=GB "A"A2A |]
